public/svg/icon/poe.svg

<svg xmlns="http://www.w3.org/2000/svg" xmlns:xlink="http://www.w3.org/1999/xlink" width="32" height="32" viewBox="0 0 32 32"><defs><linearGradient id="poe-c" x1="50%" x2="50%" y1="0%" y2="100%"><stop offset="0%" stop-color="#FFF" stop-opacity=".5"/><stop offset="100%" stop-opacity=".5"/></linearGradient><circle id="poe-b" cx="16" cy="15" r="15"/><filter id="poe-a" width="111.7%" height="111.7%" x="-5.8%" y="-4.2%" filterUnits="objectBoundingBox"><feOffset dy=".5" in="SourceAlpha" result="shadowOffsetOuter1"/><feGaussianBlur in="shadowOffsetOuter1" result="shadowBlurOuter1" stdDeviation=".5"/><feComposite in="shadowBlurOuter1" in2="SourceAlpha" operator="out" result="shadowBlurOuter1"/><feColorMatrix in="shadowBlurOuter1" values="0 0 0 0 0 0 0 0 0 0 0 0 0 0 0 0 0 0 0.199473505 0"/></filter><path id="poe-e" d="M24.7584869,6.73227751 C23.9534433,5.93941679 22.8768186,5.5 21.7419981,5.5 C20.5974782,5.5 19.5305529,5.93941679 18.7255092,6.73227751 L8.870999,16.4376571 C8.77400582,16.5331825 8.7158099,16.6764706 8.72550922,16.8197587 L8.72550922,21.8157366 L6,24.5 L7.50339477,24.5 L9.52085354,22.5130719 L14.5645005,22.5130719 C14.7099903,22.5130719 14.8457808,22.4557567 14.942774,22.3506787 L24.7487876,12.6930618 L24.7584869,12.6835093 C25.5538312,11.8906486 26,10.8398693 26,9.72222222 C26,8.58547006 25.5635306,7.53469077 24.7584869,6.73227751 Z M19.0261882,7.85947711 L19.443259,7.44871794 C20.0543162,6.84690796 20.8690592,6.51256911 21.7419981,6.51256911 C22.6052376,6.51256911 23.4199806,6.84690796 24.0407372,7.44871794 C24.0504365,7.45827046 24.0601358,7.47737556 24.0795345,7.48692808 C24.671193,8.08873806 24.9912706,8.87204626 24.9912706,9.71266966 C24.9912706,10.5628456 24.6517944,11.3652589 24.0407372,11.9766214 L23.613967,12.3969331 L19.8021339,12.3969331 L22.3045587,9.93237806 C22.5082444,9.73177473 22.5082444,9.42609351 22.3239573,9.21593766 C22.314258,9.20638511 22.314258,9.19683256 22.3045587,9.18728004 C22.100873,8.98667671 21.7613967,8.98667671 21.557711,9.18728004 L19.0358875,11.6709402 L19.0358875,7.85947711 L19.0261882,7.85947711 Z M10.5489816,21.5005028 L12.6052376,19.4753645 L16.4170708,19.4753645 L14.3608148,21.5005028 L10.5489816,21.5005028 Z M16.5334627,15.5970337 L18.9679923,13.1993464 L22.7798254,13.1993464 L20.3452959,15.5970337 L16.5334627,15.5970337 Z M19.5111542,16.418552 L17.2415131,18.6538461 L13.4296799,18.6538461 L15.6993211,16.418552 L19.5111542,16.418552 Z M15.757517,11.0786827 L18.2017459,8.67144293 L18.2017459,12.4733534 L15.757517,14.8901458 L15.757517,11.0786827 Z M12.6537342,14.1354952 L14.9233753,11.9002011 L14.9233753,15.7021116 L12.6537342,17.9374057 L12.6537342,14.1354952 Z M9.74393793,17.0012569 L11.8292919,14.9570136 L11.8292919,18.7589241 L9.74393793,20.8031674 L9.74393793,17.0012569 Z"/><filter id="poe-d" width="117.5%" height="118.4%" x="-8.8%" y="-6.6%" filterUnits="objectBoundingBox"><feOffset dy=".5" in="SourceAlpha" result="shadowOffsetOuter1"/><feGaussianBlur in="shadowOffsetOuter1" result="shadowBlurOuter1" stdDeviation=".5"/><feColorMatrix in="shadowBlurOuter1" values="0 0 0 0 0 0 0 0 0 0 0 0 0 0 0 0 0 0 0.204257246 0"/></filter></defs><g fill="none" fill-rule="evenodd"><use fill="#000" filter="url(#poe-a)" xlink:href="#poe-b"/><use fill="#DCD6CC" xlink:href="#poe-b"/><use fill="url(#poe-c)" style="mix-blend-mode:soft-light" xlink:href="#poe-b"/><circle cx="16" cy="15" r="14.5" stroke="#000" stroke-opacity=".097"/><g fill-rule="nonzero"><use fill="#000" filter="url(#poe-d)" xlink:href="#poe-e"/><use fill="#FFF" fill-rule="evenodd" xlink:href="#poe-e"/></g></g></svg>

<svg xmlns="http://www.w3.org/2000/svg" xmlns:xlink="http://www.w3.org/1999/xlink" width="32" height="32" viewBox="0 0 32 32"><defs><filter id="a" width="111.7%" height="111.7%" x="-5.8%" y="-4.2%" filterUnits="objectBoundingBox"><feOffset dy=".5" in="SourceAlpha" result="shadowOffsetOuter1"/><feGaussianBlur in="shadowOffsetOuter1" result="shadowBlurOuter1" stdDeviation=".5"/><feComposite in="shadowBlurOuter1" in2="SourceAlpha" operator="out" result="shadowBlurOuter1"/><feColorMatrix in="shadowBlurOuter1" values="0 0 0 0 0 0 0 0 0 0 0 0 0 0 0 0 0 0 0.199473505 0"/></filter><filter id="d" width="117.5%" height="118.4%" x="-8.8%" y="-6.6%" filterUnits="objectBoundingBox"><feOffset dy=".5" in="SourceAlpha" result="shadowOffsetOuter1"/><feGaussianBlur in="shadowOffsetOuter1" result="shadowBlurOuter1" stdDeviation=".5"/><feColorMatrix in="shadowBlurOuter1" values="0 0 0 0 0 0 0 0 0 0 0 0 0 0 0 0 0 0 0.204257246 0"/></filter><linearGradient id="c" x1="50%" x2="50%" y1="0%" y2="100%"><stop offset="0%" stop-color="#FFF" stop-opacity=".5"/><stop offset="100%" stop-opacity=".5"/></linearGradient><circle id="b" cx="16" cy="15" r="15"/><path id="e" d="M24.758 6.732A4.283 4.283 0 0021.742 5.5c-1.145 0-2.211.44-3.016 1.232L8.87 16.438a.5.5 0 00-.145.382v4.996L6 24.5h1.503l2.018-1.987h5.044a.51.51 0 00.378-.162l9.806-9.658.01-.01A4.162 4.162 0 0026 9.724a4.171 4.171 0 00-1.242-2.99zM19.026 7.86l.417-.41a3.253 3.253 0 012.299-.936c.863 0 1.678.334 2.299.936.01.01.02.028.039.038.591.602.911 1.385.911 2.226 0 .85-.34 1.652-.95 2.264l-.427.42h-3.812l2.503-2.465a.514.514 0 00.019-.716c-.01-.01-.01-.02-.02-.029a.539.539 0 00-.746 0l-2.522 2.484V7.859h-.01zM10.55 21.501l2.056-2.026h3.812l-2.056 2.026H10.55zm5.984-5.904l2.435-2.398h3.812l-2.435 2.398h-3.812zm2.978.822l-2.27 2.235H13.43l2.27-2.235h3.811zm-3.753-5.34l2.444-2.408v3.802l-2.444 2.417v-3.81zm-3.104 3.056l2.27-2.235v3.802l-2.27 2.235v-3.802zm-2.91 2.866l2.085-2.044v3.802l-2.085 2.044v-3.802z"/></defs><g fill="none" fill-rule="evenodd"><use fill="#000" filter="url(#a)" xlink:href="#b"/><use fill="#DCD6CC" xlink:href="#b"/><use fill="url(#c)" style="mix-blend-mode:soft-light" xlink:href="#b"/><circle cx="16" cy="15" r="14.5" stroke="#000" stroke-opacity=".097"/><g fill-rule="nonzero"><use fill="#000" filter="url(#d)" xlink:href="#e"/><use fill="#FFF" fill-rule="evenodd" xlink:href="#e"/></g></g></svg>
